X:0
T:Dundee
G:psalm tune
M:2/2
L:1/2
Q:1/2=80
K:DDor
% dorian/minor hexatonic
D|DE|FE|DD|C||F|AG|FE|F||
F|AG|FE|DD|C||F|ED|DC|D|]
